tools/download-figma-icons/icons/outlined-medium/smiley-sad.svg

<svg width="24" height="24" viewBox="0 0 24 24" fill="none" xmlns="http://www.w3.org/2000/svg">
<path fill-rule="evenodd" clip-rule="evenodd" d="M0 12C0 18.6165 5.3835 24 12 24C18.6165 24 24 18.6165 24 12C24 5.3835 18.6165 0 12 0C5.3835 0 0 5.3835 0 12ZM1.5 12C1.5 6.21 6.21 1.5 12 1.5C17.79 1.5 22.5 6.21 22.5 12C22.5 17.79 17.79 22.5 12 22.5C6.21 22.5 1.5 17.79 1.5 12ZM5.17501 14.4752C6.05326 15.1344 6.96451 15.3692 7.79851 15.3692C8.99101 15.3692 10.0253 14.8877 10.5743 14.4752C10.9058 14.2269 10.9733 13.7567 10.7243 13.4259C10.476 13.0937 10.0058 13.0277 9.67501 13.2759L9.67494 13.276C9.65133 13.2932 7.8527 14.6079 6.07426 13.2759C5.74501 13.0284 5.27401 13.0944 5.02501 13.4259C4.77601 13.7567 4.84351 14.2269 5.17501 14.4752ZM16.0485 15.3692C15.2145 15.3692 14.3033 15.1344 13.425 14.4752C13.0935 14.2269 13.026 13.7567 13.275 13.4259C13.5233 13.0944 13.9935 13.0284 14.3243 13.2759C16.0851 14.5958 17.868 13.3168 17.9238 13.2768L17.925 13.2759C18.2543 13.0277 18.7253 13.0937 18.9743 13.4259C19.2233 13.7567 19.1558 14.2269 18.8243 14.4752C18.2753 14.8877 17.241 15.3692 16.0485 15.3692ZM15.039 8.48719C15.0765 8.60044 15.9998 11.2502 19.5 11.2502L19.5008 11.2494C19.9155 11.2494 20.2508 10.9142 20.2508 10.4994C20.2508 10.0847 19.9155 9.74944 19.5008 9.74944C17.1195 9.74944 16.4903 8.08969 16.4603 8.00644C16.3268 7.61644 15.9083 7.40719 15.513 7.53844C15.12 7.66894 14.9078 8.09419 15.039 8.48719ZM4.5 11.25C4.08525 11.25 3.75 10.9148 3.75 10.5C3.75 10.0853 4.08525 9.75005 4.5 9.75005C6.9315 9.75005 7.533 8.0303 7.539 8.01305C7.67025 7.6208 8.0925 7.40705 8.48775 7.53905C8.88 7.66955 9.093 8.09405 8.96175 8.4878C8.92425 8.6003 8.001 11.2508 4.50075 11.2508L4.5 11.25ZM9.375 19.125C9.375 19.5397 9.71025 19.875 10.125 19.875H13.875C14.2898 19.875 14.625 19.5397 14.625 19.125C14.625 18.7103 14.2898 18.375 13.875 18.375H10.125C9.71025 18.375 9.375 18.7103 9.375 19.125Z" fill="black"/>
</svg>

<svg xmlns="http://www.w3.org/2000/svg" width="24" height="24" fill="none" viewBox="0 0 24 24"><path fill="currentColor" fill-rule="evenodd" d="M0 12c0 6.616 5.384 12 12 12s12-5.384 12-12S18.616 0 12 0 0 5.384 0 12m1.5 0C1.5 6.21 6.21 1.5 12 1.5S22.5 6.21 22.5 12 17.79 22.5 12 22.5 1.5 17.79 1.5 12m3.675 2.475c.878.66 1.79.894 2.624.894 1.192 0 2.226-.481 2.775-.894a.749.749 0 1 0-.899-1.2v.001c-.024.017-1.822 1.332-3.6 0a.75.75 0 0 0-.9 1.2m10.874.894c-.835 0-1.746-.235-2.624-.894a.749.749 0 1 1 .9-1.2c1.76 1.32 3.543.042 3.599.002l.001-.001a.749.749 0 1 1 .9 1.2c-.55.412-1.584.893-2.776.893m-1.01-6.882c.037.113.96 2.763 4.461 2.763a.75.75 0 1 0 0-1.5c-2.38 0-3.01-1.66-3.04-1.744a.75.75 0 0 0-1.421.48M4.5 11.25a.75.75 0 1 1 0-1.5c2.432 0 3.033-1.72 3.039-1.737a.749.749 0 1 1 1.423.475C8.924 8.6 8 11.25 4.5 11.25m4.875 7.875c0 .415.335.75.75.75h3.75a.75.75 0 1 0 0-1.5h-3.75a.75.75 0 0 0-.75.75" clip-rule="evenodd"/></svg>
